icon-themes/sifr_svg/cmd/lc_hideslide.svg

<svg viewBox="0 0 24 24" xmlns="http://www.w3.org/2000/svg"><path d="m1 4v16h8.8789062l1.4999998-1.5-.5-.5h-7.878906v-8h8v3h1.121094l.234375.234375.644531-.554687v-.679688-2h3.111328l2.263672-1.9492188c.021135-.0185916.046848-.0325243.068359-.0507812h-15.443359v-2h18v1h1c.354033 0 .684647.0364722 1 .0976562v-3.0976562zm20 4c-.748763 0-1.4.3039097-1.964844.8007812l-6.035156 5.1992188h3l4.261719-3.683594c.302146-.316406.466536-.316406.738281-.316406h1v1c0 .552284.447715 1 1 1s1-.447716 1-1v-1c0-1.402542-.315061-2-2-2zm-11 6v1.707031l2.792969 2.792969-2.792969 2.792969v1.707031h1.707031l2.792969-2.792969 2.792969 2.792969h1.707031v-1.707031l-2.792969-2.792969 2.792969-2.792969v-1.707031h-1.707031l-2.792969 2.792969-2.792969-2.792969z" fill="#555753"/></svg>

<svg xmlns="http://www.w3.org/2000/svg" viewBox="0 0 24 24">
  <path
     style="fill:#555753"
     d="M 1 4 L 1 20 L 9.8789062 20 L 11.378906 18.5 L 10.878906 18 L 3 18 L 3 10 L 11 10 L 11 13 L 12.121094 13 L 12.355469 13.234375 L 13 12.679688 L 13 12 L 13 10 L 16.111328 10 L 18.375 8.0507812 C 18.396135 8.0321896 18.421848 8.0182569 18.443359 8 L 3 8 L 3 6 L 21 6 L 21 7 L 22 7 C 22.354033 7 22.684647 7.0364722 23 7.0976562 L 23 4 L 1 4 z M 21 8 C 20.251237 8 19.6 8.3039097 19.035156 8.8007812 L 13 14 L 16 14 L 20.261719 10.316406 C 20.563865 10 20.728255 10 21 10 L 22 10 L 22 11 C 22 11.552284 22.447715 12 23 12 C 23.552285 12 24 11.552284 24 11 L 24 10 C 24 8.597458 23.684939 8 22 8 L 21 8 z M 10 14 L 10 15.707031 L 12.792969 18.5 L 10 21.292969 L 10 23 L 11.707031 23 L 14.5 20.207031 L 17.292969 23 L 19 23 L 19 21.292969 L 16.207031 18.5 L 19 15.707031 L 19 14 L 17.292969 14 L 14.5 16.792969 L 11.707031 14 L 10 14 z "
     />
</svg>
